assets/svg/currencies/fiat/CHF.svg

<svg width="300" height="300" viewBox="0 0 300 300" fill="none" xmlns="http://www.w3.org/2000/svg">
<path d="M150 300C232.843 300 300 232.843 300 150C300 67.1573 232.843 0 150 0C67.1573 0 0 67.1573 0 150C0 232.843 67.1573 300 150 300Z" fill="#10BA97"/>
<path d="M53 149.5C53 142.186 54.396 135.795 57.1881 130.327C60.0482 124.791 64.1001 120.519 69.3437 117.511C74.6554 114.504 80.8864 113 88.0368 113C93.6209 113 98.6261 114.094 103.053 116.281C107.479 118.468 111.054 121.544 113.778 125.508C116.502 129.473 118.136 134.052 118.681 139.247H103.359C102.474 135.146 100.601 131.934 97.7409 129.61C94.9488 127.217 91.4417 126.021 87.2196 126.021C81.4993 126.021 76.9707 128.174 73.6339 132.48C70.2971 136.787 68.6287 142.46 68.6287 149.5C68.6287 156.472 70.2971 162.145 73.6339 166.52C76.9707 170.826 81.4993 172.979 87.2196 172.979C91.4417 172.979 94.9488 171.817 97.7409 169.493C100.601 167.101 102.474 163.854 103.359 159.753H118.681C118.136 164.948 116.502 169.527 113.778 173.492C111.054 177.456 107.479 180.532 103.053 182.719C98.6261 184.906 93.6209 186 88.0368 186C80.8864 186 74.6554 184.496 69.3437 181.489C64.1001 178.481 60.0482 174.243 57.1881 168.775C54.396 163.239 53 156.814 53 149.5Z" fill="white"/>
<path d="M127.583 113.615H142.905V142.426H171.303V113.615H186.625L186.625 185.385H171.303V155.754H142.905V185.385H127.583L127.583 113.615Z" fill="white"/>
<path d="M198.808 113.615L246 113.615V126.841L214.13 126.841V143.656H240.28V156.267H214.13L214.13 185.385H198.808L198.808 113.615Z" fill="white"/>
</svg>

<svg viewBox="0 0 300 300" fill="none" xmlns="http://www.w3.org/2000/svg">
    <path d="M150 300c82.843 0 150-67.157 150-150S232.843 0 150 0 0 67.157 0 150s67.157 150 150 150z" fill="#10BA97"/>
    <path d="M53 149.5c0-7.314 1.396-13.705 4.188-19.173 2.86-5.536 6.912-9.808 12.156-12.816C74.655 114.504 80.886 113 88.037 113c5.584 0 10.59 1.094 15.016 3.281 4.426 2.187 8.001 5.263 10.725 9.227 2.724 3.965 4.358 8.544 4.903 13.739h-15.322c-.885-4.101-2.758-7.313-5.618-9.637-2.792-2.393-6.3-3.589-10.521-3.589-5.72 0-10.25 2.153-13.586 6.459-3.337 4.307-5.005 9.98-5.005 17.02 0 6.972 1.668 12.645 5.005 17.02 3.337 4.306 7.865 6.459 13.586 6.459 4.222 0 7.729-1.162 10.52-3.486 2.861-2.392 4.734-5.639 5.619-9.74h15.322c-.545 5.195-2.179 9.774-4.903 13.739-2.724 3.964-6.299 7.04-10.725 9.227-4.427 2.187-9.432 3.281-15.016 3.281-7.15 0-13.382-1.504-18.693-4.511-5.244-3.008-9.296-7.246-12.156-12.714C54.396 163.239 53 156.814 53 149.5zm74.583-35.885h15.322v28.811h28.398v-28.811h15.322v71.77h-15.322v-29.631h-28.398v29.631h-15.322v-71.77zm71.225 0H246v13.226h-31.87v16.815h26.15v12.611h-26.15v29.118h-15.322v-71.77z" fill="#fff"/>
</svg>
